Simply-Red-Circles/scalable/apps/kruler.svg

<svg xmlns="http://www.w3.org/2000/svg" width="48" height="48" viewBox="0 0 12.7 12.7"><path d="M6.35.083A6.267 6.267 0 0 0 .084 6.35a6.267 6.267 0 0 0 6.268 6.267 6.267 6.267 0 0 0 6.266-6.267A6.267 6.267 0 0 0 6.351.083zm-.017.932a5.388 5.388 0 0 1 5.388 5.39 5.388 5.388 0 0 1-.382 1.977v-.59h-.529v1.605a5.388 5.388 0 0 1-.529.663V7.791h-.53v2.772a5.388 5.388 0 0 1-.528.387V7.79h-.53v3.452a5.388 5.388 0 0 1-.529.223V5.733h-.529v5.894a5.388 5.388 0 0 1-.529.104v-3.94h-.53v3.992a5.388 5.388 0 0 1-.243.009 5.388 5.388 0 0 1-.285-.014V7.79h-.53v3.932a5.388 5.388 0 0 1-.529-.108V7.791H4.46v3.658a5.388 5.388 0 0 1-.529-.228V7.79h-.53v3.129a5.388 5.388 0 0 1-.528-.386V5.733h-.53v4.285a5.388 5.388 0 0 1-.529-.68V7.791h-.529v.49a5.388 5.388 0 0 1-.341-1.877 5.388 5.388 0 0 1 5.389-5.389z" fill="#a02c2c"/></svg>

<?xml version="1.0" encoding="UTF-8" standalone="no"?>
<svg
   xmlns:dc="http://purl.org/dc/elements/1.1/"
   xmlns:cc="http://creativecommons.org/ns#"
   xmlns:rdf="http://www.w3.org/1999/02/22-rdf-syntax-ns#"
   xmlns:svg="http://www.w3.org/2000/svg"
   xmlns="http://www.w3.org/2000/svg"
   xmlns:sodipodi="http://sodipodi.sourceforge.net/DTD/sodipodi-0.dtd"
   xmlns:inkscape="http://www.inkscape.org/namespaces/inkscape"
   width="48"
   height="48"
   viewBox="0 0 12.7 12.7"
   version="1.1"
   id="svg4"
   sodipodi:docname="kruler.svg"
   inkscape:version="0.92.4 (5da689c313, 2019-01-14)">
  <metadata
     id="metadata10">
    <rdf:RDF>
      <cc:Work
         rdf:about="">
        <dc:format>image/svg+xml</dc:format>
        <dc:type
           rdf:resource="http://purl.org/dc/dcmitype/StillImage" />
        <dc:title></dc:title>
      </cc:Work>
    </rdf:RDF>
  </metadata>
  <defs
     id="defs8" />
  <sodipodi:namedview
     pagecolor="#ffffff"
     bordercolor="#666666"
     borderopacity="1"
     objecttolerance="10"
     gridtolerance="10"
     guidetolerance="10"
     inkscape:pageopacity="0"
     inkscape:pageshadow="2"
     inkscape:window-width="1087"
     inkscape:window-height="480"
     id="namedview6"
     showgrid="false"
     inkscape:zoom="4.9166667"
     inkscape:cx="2.1355932"
     inkscape:cy="24"
     inkscape:window-x="0"
     inkscape:window-y="25"
     inkscape:window-maximized="0"
     inkscape:current-layer="svg4" />
  <path
     d="M 6.35,0.083 A 6.267,6.267 0 0 0 0.084,6.35 6.267,6.267 0 0 0 6.352,12.617 6.267,6.267 0 0 0 12.618,6.35 6.267,6.267 0 0 0 6.351,0.083 Z M 6.333,1.015 a 5.388,5.388 0 0 1 5.388,5.39 5.388,5.388 0 0 1 -0.382,1.977 V 7.792 H 10.81 V 9.397 A 5.388,5.388 0 0 1 10.281,10.06 V 7.791 h -0.53 v 2.772 A 5.388,5.388 0 0 1 9.223,10.95 V 7.79 h -0.53 v 3.452 A 5.388,5.388 0 0 1 8.164,11.465 V 5.733 H 7.635 v 5.894 a 5.388,5.388 0 0 1 -0.529,0.104 v -3.94 h -0.53 v 3.992 A 5.388,5.388 0 0 1 6.333,11.792 5.388,5.388 0 0 1 6.048,11.778 V 7.79 h -0.53 v 3.932 A 5.388,5.388 0 0 1 4.989,11.614 V 7.791 H 4.46 v 3.658 A 5.388,5.388 0 0 1 3.931,11.221 V 7.79 h -0.53 v 3.129 A 5.388,5.388 0 0 1 2.873,10.533 v -4.8 h -0.53 v 4.285 A 5.388,5.388 0 0 1 1.814,9.338 V 7.791 H 1.285 v 0.49 A 5.388,5.388 0 0 1 0.944,6.404 5.388,5.388 0 0 1 6.333,1.015 Z"
     id="path2"
     inkscape:connector-curvature="0"
     style="fill:#a02c2c" />
</svg>
